X: 105
T: Mrs John Anderson's Favourite
R: jig
Q: "Slowish"
B: William Shepherd "1st Collection" 1793 p.10 #5
F: http://imslp.org/wiki/File:PMLP73094-Shepherd_Collections_HMT.pdf
C: William Shepherd (17??-1812)
Z: 2012 John Chambers <jc:trillian.mit.edu>
M: 6/8
L: 1/8
K: Eb
B, |\
E>FE {A}G>FE | D>TFF F>GA | G<EE A<FF | B<GG c<TAA |\
B>Ge (c/B/).A/.G/.F/.E/ | D>FF F>GTA | GEB, CFD | EB,G E2 :|
|: (3B/c/d/ |\
e>BG B>GE | D>FF TF>GA | G>BB A>cc | d>ff e>cA |\
BGe/d/ (c/B/).A/.G/.F/.E/ | DFF TFBA | G>EB, C>FD | [EG,][EG,][GB,] [E2G,2] :|
